src/view/frontend/web/svg/heroicons/outline/receipt-refund.svg

<svg  viewBox="0 0 24 24" fill="none" stroke="currentColor" xmlns="http://www.w3.org/2000/svg">
<path d="M16 15V14C16 11.7909 14.2091 10 12 10H8M8 10L11 13M8 10L11 7M20 21V5C20 3.89543 19.1046 3 18 3H6C4.89543 3 4 3.89543 4 5V21L8 19L12 21L16 19L20 21Z"  stroke-width="2" stroke-linecap="round" stroke-linejoin="round"/>
</svg>

<svg xmlns="http://www.w3.org/2000/svg" fill="none" viewBox="0 0 24 24" stroke="currentColor">
  <path stroke-linecap="round" stroke-linejoin="round" stroke-width="2" d="M16 15v-1a4 4 0 00-4-4H8m0 0l3 3m-3-3l3-3m9 14V5a2 2 0 00-2-2H6a2 2 0 00-2 2v16l4-2 4 2 4-2 4 2z"/>
</svg>
